HTML/img/Rhythms/rhythm0.svg

<svg width="612" height="792" viewBox="0 0 140 50" xmlns="http://www.w3.org/2000/svg"><path class="StaffLines" fill="none" stroke="#000" stroke-width=".4" stroke-linejoin="bevel" d="M4.945 17.143h130.11"/><path class="BarLine" d="M125.821 15.444a1.091 1.091 0 01-.332-.801c0-.313.11-.58.332-.801.221-.221.488-.332.8-.332.313 0 .58.111.801.332.222.221.332.488.332.801 0 .312-.11.579-.332.801a1.092 1.092 0 01-.801.332c-.312 0-.579-.111-.8-.332M125.821 20.444a1.088 1.088 0 01-.332-.801c0-.312.11-.579.332-.801.221-.221.488-.332.8-.332.313 0 .58.111.801.332.222.222.332.489.332.801 0 .313-.11.58-.332.801a1.092 1.092 0 01-.801.332c-.312 0-.579-.111-.8-.332"/><path class="BarLine" fill="none" stroke="#000" stroke-width=".8" stroke-linejoin="bevel" d="M130.155 7.142v20.002"/><path class="BarLine" fill="none" stroke="#000" stroke-width="2.5" stroke-linejoin="bevel" d="M133.805 7.142v20.002"/><path class="Stem" fill="none" stroke="#000" stroke-width=".65" stroke-linecap="round" stroke-linejoin="bevel" d="M114.23 18.082v14.062M106.297 18.082v14.062M98.363 18.082v14.062M82.885 18.082v12.187M74.952 18.082v14.062M67.018 18.082v14.062M59.085 18.082v14.062M43.607 18.082v12.187"/><path class="Note" d="M118.3 14.389c.625 0 1.152.163 1.582.488.403.352.605.795.605 1.328 0 .899-.462 1.739-1.387 2.52-.937.781-1.94 1.172-3.007 1.172-.625 0-1.153-.163-1.582-.488a1.688 1.688 0 01-.606-1.329c0-.898.469-1.738 1.406-2.519.912-.781 1.908-1.172 2.989-1.172M110.366 14.389c.625 0 1.152.163 1.582.488.404.352.606.795.606 1.328 0 .899-.463 1.739-1.387 2.52-.938.781-1.94 1.172-3.008 1.172-.625 0-1.152-.163-1.582-.488a1.687 1.687 0 01-.605-1.329c0-.898.468-1.738 1.406-2.519.911-.781 1.907-1.172 2.988-1.172M102.433 14.389c.625 0 1.152.163 1.582.488.403.352.605.795.605 1.328 0 .899-.462 1.739-1.387 2.52-.937.781-1.94 1.172-3.007 1.172-.625 0-1.153-.163-1.583-.488a1.69 1.69 0 01-.605-1.329c0-.898.469-1.738 1.406-2.519.912-.781 1.908-1.172 2.989-1.172M86.954 14.389c.625 0 1.153.163 1.582.488.404.352.606.795.606 1.328 0 .899-.462 1.739-1.387 2.52-.937.781-1.94 1.172-3.008 1.172-.625 0-1.152-.163-1.582-.488a1.69 1.69 0 01-.605-1.329c0-.898.469-1.738 1.406-2.519.912-.781 1.908-1.172 2.988-1.172M79.021 14.389c.625 0 1.152.163 1.582.488.404.352.605.795.605 1.328 0 .899-.462 1.739-1.386 2.52-.938.781-1.94 1.172-3.008 1.172-.625 0-1.152-.163-1.582-.488a1.687 1.687 0 01-.605-1.329c0-.898.468-1.738 1.406-2.519.911-.781 1.907-1.172 2.988-1.172M71.088 14.389c.625 0 1.152.163 1.582.488.403.352.605.795.605 1.328 0 .899-.462 1.739-1.387 2.52-.937.781-1.94 1.172-3.007 1.172-.625 0-1.153-.163-1.582-.488a1.688 1.688 0 01-.606-1.329c0-.898.469-1.738 1.406-2.519.912-.781 1.908-1.172 2.989-1.172M63.154 14.389c.625 0 1.152.163 1.582.488.404.352.606.795.606 1.328 0 .899-.463 1.739-1.387 2.52-.938.781-1.94 1.172-3.008 1.172-.625 0-1.152-.163-1.582-.488a1.687 1.687 0 01-.605-1.329c0-.898.468-1.738 1.406-2.519.911-.781 1.907-1.172 2.988-1.172M47.676 14.389c.625 0 1.152.163 1.582.488.404.352.606.795.606 1.328 0 .899-.463 1.739-1.387 2.52-.938.781-1.94 1.172-3.008 1.172-.625 0-1.152-.163-1.582-.488a1.688 1.688 0 01-.606-1.329c0-.898.469-1.738 1.407-2.519.911-.781 1.907-1.172 2.988-1.172"/><path class="Clef" d="M17.95 22.143h-1.836c-.144 0-.215-.065-.215-.195v-9.61c0-.13.071-.195.215-.195h1.836c.13 0 .195.065.195.195v9.61c0 .13-.065.195-.195.195m-4.414 0H11.68c-.13 0-.195-.065-.195-.195v-9.61c0-.13.065-.195.195-.195h1.856c.143 0 .214.065.214.195v9.61c0 .13-.071.195-.214.195"/><path class="TimeSig" d="M31.023 7.397c.39 0 .722-.046.996-.137.273-.091.449-.137.527-.137.091 0 .163.026.215.078a.29.29 0 01.078.137.3.3 0 01-.039.117l-5.684 6.602h3.34v-2.618c0-.169.046-.312.137-.429.156-.13.286-.209.391-.235.169-.078.377-.26.625-.546.208-.235.455-.645.742-1.231.039-.078.097-.117.176-.117.156 0 .247.091.273.273v4.903h1.426c.182 0 .286.097.312.293 0 .195-.104.293-.312.293H32.8v.156c0 .521.13.963.391 1.328.299.365.651.547 1.054.547.157 0 .235.078.235.234 0 .156-.078.235-.235.235-.273 0-.716-.039-1.328-.118-.56-.091-.996-.136-1.308-.136-.326 0-.762.045-1.309.136-.586.079-1.022.118-1.309.118-.156 0-.234-.079-.234-.235 0-.156.078-.234.234-.234.404 0 .756-.182 1.055-.547.274-.365.41-.807.41-1.328v-.156h-3.34c-.221 0-.377-.052-.468-.157a.369.369 0 01-.157-.312c0-.039.098-.176.293-.41a9.65 9.65 0 00.703-.957c.287-.443.56-.899.821-1.368a7.79 7.79 0 00.683-1.835c.196-.704.293-1.42.293-2.149 0-.208.091-.312.274-.312.039 0 .123.019.254.058.039.013.12.033.244.059.124.026.224.052.303.078.234.039.455.059.664.059"/><path class="TimeSig" d="M31.023 17.397c.39 0 .722-.045.996-.137.273-.091.449-.136.527-.136.091 0 .163.026.215.078a.286.286 0 01.078.137.3.3 0 01-.039.117l-5.684 6.601h3.34V21.44c0-.169.046-.312.137-.43.156-.13.286-.208.391-.234.169-.078.377-.26.625-.547.208-.234.455-.644.742-1.23.039-.078.097-.117.176-.117.156 0 .247.091.273.273v4.902h1.426c.182 0 .286.098.312.293 0 .196-.104.293-.312.293H32.8v.156c0 .521.13.964.391 1.329.299.364.651.546 1.054.546.157 0 .235.079.235.235 0 .156-.078.234-.235.234-.273 0-.716-.039-1.328-.117-.56-.091-.996-.137-1.308-.137-.326 0-.762.046-1.309.137-.586.078-1.022.117-1.309.117-.156 0-.234-.078-.234-.234 0-.156.078-.235.234-.235.404 0 .756-.182 1.055-.546.274-.365.41-.808.41-1.329v-.156h-3.34c-.221 0-.377-.052-.468-.156a.37.37 0 01-.157-.313c0-.039.098-.175.293-.41.222-.26.456-.579.703-.957.287-.442.56-.898.821-1.367a7.815 7.815 0 00.683-1.836 7.96 7.96 0 00.293-2.148c0-.209.091-.313.274-.313.039 0 .123.02.254.059.039.013.12.032.244.058.124.026.224.053.303.079.234.039.455.058.664.058"/><path class="Beam" fill-rule="evenodd" d="M98.038 30.894h16.517v2.5H98.038v-2.5M58.76 30.894h16.517v2.5H58.76v-2.5"/><path class="Tuplet" d="M104.872 39.037c1.593-.26 2.39-.813 2.39-1.66 0-.273-.082-.493-.245-.66-.164-.167-.379-.25-.645-.25-.407 0-.78.223-1.12.67l-.16-.05a1.99 1.99 0 01.685-.775c.29-.19.608-.285.955-.285.4 0 .733.122 1 .366.266.243.4.551.4.924 0 .34-.109.613-.325.82-.217.207-.629.427-1.235.66v.03c.64.293.96.79.96 1.49 0 .693-.257 1.293-.77 1.8-.514.507-1.187.76-2.02.76-.747 0-1.12-.197-1.12-.59 0-.26.146-.39.44-.39.166 0 .39.1.67.3.28.2.51.3.69.3.36 0 .668-.152.925-.455.256-.303.385-.698.385-1.185 0-.627-.157-1.06-.47-1.3-.314-.24-.777-.36-1.39-.36v-.16M65.593 39.037c1.593-.26 2.39-.813 2.39-1.66 0-.273-.082-.493-.245-.66-.163-.167-.378-.25-.645-.25-.407 0-.78.223-1.12.67l-.16-.05c.167-.326.395-.584.685-.775.29-.19.608-.285.955-.285.4 0 .733.122 1 .366.267.243.4.551.4.924 0 .34-.108.613-.325.82-.217.207-.628.427-1.235.66v.03c.64.293.96.79.96 1.49 0 .693-.257 1.293-.77 1.8-.513.507-1.187.76-2.02.76-.747 0-1.12-.197-1.12-.59 0-.26.147-.39.44-.39.167 0 .39.1.67.3.28.2.51.3.69.3.36 0 .668-.152.925-.455.257-.303.385-.698.385-1.185 0-.627-.157-1.06-.47-1.3-.313-.24-.777-.36-1.39-.36v-.16"/></svg>

<?xml version="1.0" encoding="utf-8"?>
<svg width="612px" height="792px" viewBox="0 0 140 50" xmlns="http://www.w3.org/2000/svg">
  <title>Rythm rythms</title>
  <desc>Generated by MuseScore 2.0.3</desc>
  <polyline class="StaffLines" fill="none" stroke="#000000" stroke-width="0.40" stroke-linejoin="bevel" points="4.945 17.143 135.055 17.143"/>
  <path class="BarLine" d="M 125.821 15.444 C 125.599 15.222 125.489 14.955 125.489 14.643 C 125.489 14.33 125.599 14.063 125.821 13.842 C 126.042 13.621 126.309 13.51 126.621 13.51 C 126.934 13.51 127.201 13.621 127.422 13.842 C 127.644 14.063 127.754 14.33 127.754 14.643 C 127.754 14.955 127.644 15.222 127.422 15.444 C 127.201 15.665 126.934 15.776 126.621 15.776 C 126.309 15.776 126.042 15.665 125.821 15.444"/>
  <path class="BarLine" d="M 125.821 20.444 C 125.599 20.223 125.489 19.956 125.489 19.643 C 125.489 19.331 125.599 19.064 125.821 18.842 C 126.042 18.621 126.309 18.51 126.621 18.51 C 126.934 18.51 127.201 18.621 127.422 18.842 C 127.644 19.064 127.754 19.331 127.754 19.643 C 127.754 19.956 127.644 20.223 127.422 20.444 C 127.201 20.665 126.934 20.776 126.621 20.776 C 126.309 20.776 126.042 20.665 125.821 20.444"/>
  <polyline class="BarLine" fill="none" stroke="#000000" stroke-width="0.80" stroke-linejoin="bevel" points="130.155 7.142 130.155 27.144"/>
  <polyline class="BarLine" fill="none" stroke="#000000" stroke-width="2.50" stroke-linejoin="bevel" points="133.805 7.142 133.805 27.144"/>
  <polyline class="Stem" fill="none" stroke="#000000" stroke-width="0.65" stroke-linecap="round" stroke-linejoin="bevel" points="114.23 18.082 114.23 32.144"/>
  <polyline class="Stem" fill="none" stroke="#000000" stroke-width="0.65" stroke-linecap="round" stroke-linejoin="bevel" points="106.297 18.082 106.297 32.144"/>
  <polyline class="Stem" fill="none" stroke="#000000" stroke-width="0.65" stroke-linecap="round" stroke-linejoin="bevel" points="98.363 18.082 98.363 32.144"/>
  <polyline class="Stem" fill="none" stroke="#000000" stroke-width="0.65" stroke-linecap="round" stroke-linejoin="bevel" points="82.885 18.082 82.885 30.269"/>
  <polyline class="Stem" fill="none" stroke="#000000" stroke-width="0.65" stroke-linecap="round" stroke-linejoin="bevel" points="74.952 18.082 74.952 32.144"/>
  <polyline class="Stem" fill="none" stroke="#000000" stroke-width="0.65" stroke-linecap="round" stroke-linejoin="bevel" points="67.018 18.082 67.018 32.144"/>
  <polyline class="Stem" fill="none" stroke="#000000" stroke-width="0.65" stroke-linecap="round" stroke-linejoin="bevel" points="59.085 18.082 59.085 32.144"/>
  <polyline class="Stem" fill="none" stroke="#000000" stroke-width="0.65" stroke-linecap="round" stroke-linejoin="bevel" points="43.607 18.082 43.607 30.269"/>
  <path class="Note" d="M 118.3 14.389 C 118.925 14.389 119.452 14.552 119.882 14.877 C 120.285 15.229 120.487 15.672 120.487 16.205 C 120.487 17.104 120.025 17.944 119.1 18.725 C 118.163 19.506 117.16 19.897 116.093 19.897 C 115.468 19.897 114.94 19.734 114.511 19.409 C 114.107 19.057 113.905 18.614 113.905 18.08 C 113.905 17.182 114.374 16.342 115.311 15.561 C 116.223 14.78 117.219 14.389 118.3 14.389"/>
  <path class="Note" d="M 110.366 14.389 C 110.991 14.389 111.518 14.552 111.948 14.877 C 112.352 15.229 112.554 15.672 112.554 16.205 C 112.554 17.104 112.091 17.944 111.167 18.725 C 110.229 19.506 109.227 19.897 108.159 19.897 C 107.534 19.897 107.007 19.734 106.577 19.409 C 106.173 19.057 105.972 18.614 105.972 18.08 C 105.972 17.182 106.44 16.342 107.378 15.561 C 108.289 14.78 109.285 14.389 110.366 14.389"/>
  <path class="Note" d="M 102.433 14.389 C 103.058 14.389 103.585 14.552 104.015 14.877 C 104.418 15.229 104.62 15.672 104.62 16.205 C 104.62 17.104 104.158 17.944 103.233 18.725 C 102.296 19.506 101.293 19.897 100.226 19.897 C 99.601 19.897 99.073 19.734 98.643 19.409 C 98.24 19.057 98.038 18.614 98.038 18.08 C 98.038 17.182 98.507 16.342 99.444 15.561 C 100.356 14.78 101.352 14.389 102.433 14.389"/>
  <path class="Note" d="M 86.954 14.389 C 87.579 14.389 88.107 14.552 88.536 14.877 C 88.94 15.229 89.142 15.672 89.142 16.205 C 89.142 17.104 88.68 17.944 87.755 18.725 C 86.818 19.506 85.815 19.897 84.747 19.897 C 84.122 19.897 83.595 19.734 83.165 19.409 C 82.762 19.057 82.56 18.614 82.56 18.08 C 82.56 17.182 83.029 16.342 83.966 15.561 C 84.878 14.78 85.874 14.389 86.954 14.389"/>
  <path class="Note" d="M 79.021 14.389 C 79.646 14.389 80.173 14.552 80.603 14.877 C 81.007 15.229 81.208 15.672 81.208 16.205 C 81.208 17.104 80.746 17.944 79.822 18.725 C 78.884 19.506 77.882 19.897 76.814 19.897 C 76.189 19.897 75.662 19.734 75.232 19.409 C 74.828 19.057 74.627 18.614 74.627 18.08 C 74.627 17.182 75.095 16.342 76.033 15.561 C 76.944 14.78 77.94 14.389 79.021 14.389"/>
  <path class="Note" d="M 71.088 14.389 C 71.713 14.389 72.24 14.552 72.67 14.877 C 73.073 15.229 73.275 15.672 73.275 16.205 C 73.275 17.104 72.813 17.944 71.888 18.725 C 70.951 19.506 69.948 19.897 68.881 19.897 C 68.256 19.897 67.728 19.734 67.299 19.409 C 66.895 19.057 66.693 18.614 66.693 18.08 C 66.693 17.182 67.162 16.342 68.099 15.561 C 69.011 14.78 70.007 14.389 71.088 14.389"/>
  <path class="Note" d="M 63.154 14.389 C 63.779 14.389 64.306 14.552 64.736 14.877 C 65.14 15.229 65.342 15.672 65.342 16.205 C 65.342 17.104 64.879 17.944 63.955 18.725 C 63.017 19.506 62.015 19.897 60.947 19.897 C 60.322 19.897 59.795 19.734 59.365 19.409 C 58.961 19.057 58.76 18.614 58.76 18.08 C 58.76 17.182 59.228 16.342 60.166 15.561 C 61.077 14.78 62.073 14.389 63.154 14.389"/>
  <path class="Note" d="M 47.676 14.389 C 48.301 14.389 48.828 14.552 49.258 14.877 C 49.662 15.229 49.864 15.672 49.864 16.205 C 49.864 17.104 49.401 17.944 48.477 18.725 C 47.539 19.506 46.537 19.897 45.469 19.897 C 44.844 19.897 44.317 19.734 43.887 19.409 C 43.483 19.057 43.281 18.614 43.281 18.08 C 43.281 17.182 43.75 16.342 44.688 15.561 C 45.599 14.78 46.595 14.389 47.676 14.389"/>
  <path class="Clef" d="M 17.95 22.143 L 16.114 22.143 C 15.97 22.143 15.899 22.078 15.899 21.948 L 15.899 12.338 C 15.899 12.208 15.97 12.143 16.114 12.143 L 17.95 12.143 C 18.08 12.143 18.145 12.208 18.145 12.338 L 18.145 21.948 C 18.145 22.078 18.08 22.143 17.95 22.143 M 13.536 22.143 L 11.68 22.143 C 11.55 22.143 11.485 22.078 11.485 21.948 L 11.485 12.338 C 11.485 12.208 11.55 12.143 11.68 12.143 L 13.536 12.143 C 13.679 12.143 13.75 12.208 13.75 12.338 L 13.75 21.948 C 13.75 22.078 13.679 22.143 13.536 22.143"/>
  <path class="TimeSig" d="M 31.023 7.397 C 31.413 7.397 31.745 7.351 32.019 7.26 C 32.292 7.169 32.468 7.123 32.546 7.123 C 32.637 7.123 32.709 7.149 32.761 7.201 C 32.8 7.24 32.826 7.286 32.839 7.338 C 32.839 7.364 32.826 7.403 32.8 7.455 L 27.116 14.057 L 30.456 14.057 L 30.456 11.439 C 30.456 11.27 30.502 11.127 30.593 11.01 C 30.749 10.88 30.879 10.801 30.984 10.775 C 31.153 10.697 31.361 10.515 31.609 10.229 C 31.817 9.994 32.064 9.584 32.351 8.998 C 32.39 8.92 32.448 8.881 32.527 8.881 C 32.683 8.881 32.774 8.972 32.8 9.154 L 32.8 14.057 L 34.226 14.057 C 34.408 14.057 34.512 14.154 34.538 14.35 C 34.538 14.545 34.434 14.643 34.226 14.643 L 32.8 14.643 L 32.8 14.799 C 32.8 15.32 32.93 15.762 33.191 16.127 C 33.49 16.492 33.842 16.674 34.245 16.674 C 34.402 16.674 34.48 16.752 34.48 16.908 C 34.48 17.064 34.402 17.143 34.245 17.143 C 33.972 17.143 33.529 17.104 32.917 17.025 C 32.357 16.934 31.921 16.889 31.609 16.889 C 31.283 16.889 30.847 16.934 30.3 17.025 C 29.714 17.104 29.278 17.143 28.991 17.143 C 28.835 17.143 28.757 17.064 28.757 16.908 C 28.757 16.752 28.835 16.674 28.991 16.674 C 29.395 16.674 29.747 16.492 30.046 16.127 C 30.32 15.762 30.456 15.32 30.456 14.799 L 30.456 14.643 L 27.116 14.643 C 26.895 14.643 26.739 14.591 26.648 14.486 C 26.543 14.408 26.491 14.304 26.491 14.174 C 26.491 14.135 26.589 13.998 26.784 13.764 C 27.006 13.503 27.24 13.184 27.487 12.807 C 27.774 12.364 28.047 11.908 28.308 11.439 C 28.594 10.906 28.822 10.294 28.991 9.604 C 29.187 8.9 29.284 8.184 29.284 7.455 C 29.284 7.247 29.375 7.143 29.558 7.143 C 29.597 7.143 29.681 7.162 29.812 7.201 C 29.851 7.214 29.932 7.234 30.056 7.26 C 30.18 7.286 30.28 7.312 30.359 7.338 C 30.593 7.377 30.814 7.397 31.023 7.397"/>
  <path class="TimeSig" d="M 31.023 17.397 C 31.413 17.397 31.745 17.352 32.019 17.26 C 32.292 17.169 32.468 17.124 32.546 17.124 C 32.637 17.124 32.709 17.15 32.761 17.202 C 32.8 17.241 32.826 17.286 32.839 17.339 C 32.839 17.365 32.826 17.404 32.8 17.456 L 27.116 24.057 L 30.456 24.057 L 30.456 21.44 C 30.456 21.271 30.502 21.128 30.593 21.01 C 30.749 20.88 30.879 20.802 30.984 20.776 C 31.153 20.698 31.361 20.516 31.609 20.229 C 31.817 19.995 32.064 19.585 32.351 18.999 C 32.39 18.921 32.448 18.882 32.527 18.882 C 32.683 18.882 32.774 18.973 32.8 19.155 L 32.8 24.057 L 34.226 24.057 C 34.408 24.057 34.512 24.155 34.538 24.35 C 34.538 24.546 34.434 24.643 34.226 24.643 L 32.8 24.643 L 32.8 24.799 C 32.8 25.32 32.93 25.763 33.191 26.128 C 33.49 26.492 33.842 26.674 34.245 26.674 C 34.402 26.674 34.48 26.753 34.48 26.909 C 34.48 27.065 34.402 27.143 34.245 27.143 C 33.972 27.143 33.529 27.104 32.917 27.026 C 32.357 26.935 31.921 26.889 31.609 26.889 C 31.283 26.889 30.847 26.935 30.3 27.026 C 29.714 27.104 29.278 27.143 28.991 27.143 C 28.835 27.143 28.757 27.065 28.757 26.909 C 28.757 26.753 28.835 26.674 28.991 26.674 C 29.395 26.674 29.747 26.492 30.046 26.128 C 30.32 25.763 30.456 25.32 30.456 24.799 L 30.456 24.643 L 27.116 24.643 C 26.895 24.643 26.739 24.591 26.648 24.487 C 26.543 24.409 26.491 24.305 26.491 24.174 C 26.491 24.135 26.589 23.999 26.784 23.764 C 27.006 23.504 27.24 23.185 27.487 22.807 C 27.774 22.365 28.047 21.909 28.308 21.44 C 28.594 20.906 28.822 20.294 28.991 19.604 C 29.187 18.901 29.284 18.185 29.284 17.456 C 29.284 17.247 29.375 17.143 29.558 17.143 C 29.597 17.143 29.681 17.163 29.812 17.202 C 29.851 17.215 29.932 17.234 30.056 17.26 C 30.18 17.286 30.28 17.313 30.359 17.339 C 30.593 17.378 30.814 17.397 31.023 17.397"/>
  <path class="Beam" fill-rule="evenodd" d="M 98.038 30.894 L 114.555 30.894 L 114.555 33.394 L 98.038 33.394 L 98.038 30.894"/>
  <path class="Beam" fill-rule="evenodd" d="M 58.76 30.894 L 75.277 30.894 L 75.277 33.394 L 58.76 33.394 L 58.76 30.894"/>
  <path class="Tuplet" d="M 104.872 39.037 C 106.465 38.777 107.262 38.224 107.262 37.377 C 107.262 37.104 107.18 36.884 107.017 36.717 C 106.853 36.55 106.638 36.467 106.372 36.467 C 105.965 36.467 105.592 36.69 105.252 37.137 L 105.092 37.087 C 105.258 36.761 105.487 36.503 105.777 36.312 C 106.067 36.122 106.385 36.027 106.732 36.027 C 107.132 36.027 107.465 36.149 107.732 36.393 C 107.998 36.636 108.132 36.944 108.132 37.317 C 108.132 37.657 108.023 37.93 107.807 38.137 C 107.59 38.344 107.178 38.564 106.572 38.797 L 106.572 38.827 C 107.212 39.12 107.532 39.617 107.532 40.317 C 107.532 41.01 107.275 41.61 106.762 42.117 C 106.248 42.624 105.575 42.877 104.742 42.877 C 103.995 42.877 103.622 42.68 103.622 42.287 C 103.622 42.027 103.768 41.897 104.062 41.897 C 104.228 41.897 104.452 41.997 104.732 42.197 C 105.012 42.397 105.242 42.497 105.422 42.497 C 105.782 42.497 106.09 42.345 106.347 42.042 C 106.603 41.739 106.732 41.344 106.732 40.857 C 106.732 40.23 106.575 39.797 106.262 39.557 C 105.948 39.317 105.485 39.197 104.872 39.197 L 104.872 39.037"/>
  <path class="Tuplet" d="M 65.593 39.037 C 67.186 38.777 67.983 38.224 67.983 37.377 C 67.983 37.104 67.901 36.884 67.738 36.717 C 67.575 36.55 67.36 36.467 67.093 36.467 C 66.686 36.467 66.313 36.69 65.973 37.137 L 65.813 37.087 C 65.98 36.761 66.208 36.503 66.498 36.312 C 66.788 36.122 67.106 36.027 67.453 36.027 C 67.853 36.027 68.186 36.149 68.453 36.393 C 68.72 36.636 68.853 36.944 68.853 37.317 C 68.853 37.657 68.745 37.93 68.528 38.137 C 68.311 38.344 67.9 38.564 67.293 38.797 L 67.293 38.827 C 67.933 39.12 68.253 39.617 68.253 40.317 C 68.253 41.01 67.996 41.61 67.483 42.117 C 66.97 42.624 66.296 42.877 65.463 42.877 C 64.716 42.877 64.343 42.68 64.343 42.287 C 64.343 42.027 64.49 41.897 64.783 41.897 C 64.95 41.897 65.173 41.997 65.453 42.197 C 65.733 42.397 65.963 42.497 66.143 42.497 C 66.503 42.497 66.811 42.345 67.068 42.042 C 67.325 41.739 67.453 41.344 67.453 40.857 C 67.453 40.23 67.296 39.797 66.983 39.557 C 66.67 39.317 66.206 39.197 65.593 39.197 L 65.593 39.037"/>
</svg>
